X: 1
T: SHUNSTER'S -- HORNPIPE
B: Ryan's Mammoth Collection of Fiddle Tunes
R: hornpipe
M: C|
L: 1/8
Z: Contributed 20010916031845 by John Chambers jmchambers:rcn.net
K: A
vcd \
| (3eae (3c"4"ec (3AcA (EA) | C>EA>c e>cA>c \
| (3dfd (3cec (3BdB (3AcA | G>BF>B E2(cd) |
| e>ac>e A>cE>A | C>EA>c e>cA>c \
| (3dfd (3cec (3BdB (3GBG | A2 c2 A2 :|
|: vBc \
| d>BG>B E>GB>c | d>BG>B d2(cd) \
| e>c (3AcA E>Ac>d | e>c (3Ace a2(ga) |
| f>dB>d (3fed (3cBA | (3GAB (3AGF E2(cd) \
| e>af>d c>AB>G | A2 c2 A2 :|
